polaris-icons/icons/new-icons/CircleChevronLeftMinor.svg

<svg width="20" height="20" viewBox="0 0 20 20" fill="none" xmlns="http://www.w3.org/2000/svg">
<path fill-rule="evenodd" clip-rule="evenodd" d="M11.7803 6.46967C12.0732 6.76256 12.0732 7.23744 11.7803 7.53033L9.31066 10L11.7803 12.4697C12.0732 12.7626 12.0732 13.2374 11.7803 13.5303C11.4874 13.8232 11.0126 13.8232 10.7197 13.5303L7.71967 10.5303C7.42678 10.2374 7.42678 9.76256 7.71967 9.46967L10.7197 6.46967C11.0126 6.17678 11.4874 6.17678 11.7803 6.46967Z" fill="#4A4A4A"/>
<path fill-rule="evenodd" clip-rule="evenodd" d="M10 15.5C13.0376 15.5 15.5 13.0376 15.5 10C15.5 6.96243 13.0376 4.5 10 4.5C6.96243 4.5 4.5 6.96243 4.5 10C4.5 13.0376 6.96243 15.5 10 15.5ZM10 17C13.866 17 17 13.866 17 10C17 6.13401 13.866 3 10 3C6.13401 3 3 6.13401 3 10C3 13.866 6.13401 17 10 17Z" fill="#4A4A4A"/>
</svg>

<svg viewBox="0 0 20 20" xmlns="http://www.w3.org/2000/svg"><path fill-rule="evenodd" d="M11.78 6.47a.75.75 0 0 1 0 1.06l-2.47 2.47 2.47 2.47a.75.75 0 1 1-1.06 1.06l-3-3a.75.75 0 0 1 0-1.06l3-3a.75.75 0 0 1 1.06 0Z" fill="#5C5F62"/><path fill-rule="evenodd" d="M10 15.5a5.5 5.5 0 1 0 0-11 5.5 5.5 0 0 0 0 11Zm0 1.5a7 7 0 1 0 0-14 7 7 0 0 0 0 14Z" fill="#5C5F62"/></svg>
